dist/img/card/card-bell@320.svg

<svg width="14" height="14" viewBox="0 0 14 14" fill="none" xmlns="http://www.w3.org/2000/svg">
<path d="M11.0833 7.92513V5.83329C11.0833 3.95671 9.80875 2.37588 8.08208 1.90046C7.91117 1.46996 7.4935 1.16663 7 1.16663C6.5065 1.16663 6.08883 1.46996 5.91792 1.90046C4.19125 2.37646 2.91667 3.95671 2.91667 5.83329V7.92513L1.92092 8.92088C1.86664 8.97495 1.8236 9.03923 1.79427 9.11001C1.76493 9.18079 1.74989 9.25667 1.75 9.33329V10.5C1.75 10.6547 1.81146 10.803 1.92085 10.9124C2.03025 11.0218 2.17862 11.0833 2.33333 11.0833H11.6667C11.8214 11.0833 11.9697 11.0218 12.0791 10.9124C12.1885 10.803 12.25 10.6547 12.25 10.5V9.33329C12.2501 9.25667 12.2351 9.18079 12.2057 9.11001C12.1764 9.03923 12.1334 8.97495 12.0791 8.92088L11.0833 7.92513ZM11.0833 9.91663H2.91667V9.57479L3.91242 8.57904C3.96669 8.52496 4.00973 8.46068 4.03907 8.3899C4.0684 8.31912 4.08344 8.24324 4.08333 8.16663V5.83329C4.08333 4.22504 5.39175 2.91663 7 2.91663C8.60825 2.91663 9.91667 4.22504 9.91667 5.83329V8.16663C9.91667 8.32179 9.97792 8.46996 10.0876 8.57904L11.0833 9.57479V9.91663ZM7 12.8333C7.36126 12.8337 7.71368 12.7216 8.00829 12.5126C8.30289 12.3035 8.52503 12.0078 8.64383 11.6666H5.35617C5.47497 12.0078 5.69711 12.3035 5.99171 12.5126C6.28632 12.7216 6.63874 12.8337 7 12.8333Z" fill="#3670C7"/>
</svg>

<svg width="14" height="14" fill="none" xmlns="http://www.w3.org/2000/svg"><path d="M11.083 7.925V5.833a4.087 4.087 0 0 0-3-3.933A1.16 1.16 0 0 0 7 1.167a1.16 1.16 0 0 0-1.082.733 4.087 4.087 0 0 0-3.001 3.933v2.092l-.996.996a.58.58 0 0 0-.171.412V10.5a.583.583 0 0 0 .583.583h9.334a.583.583 0 0 0 .583-.583V9.333a.58.58 0 0 0-.17-.412l-.997-.996Zm0 1.992H2.917v-.342l.995-.996a.581.581 0 0 0 .171-.412V5.833A2.92 2.92 0 0 1 7 2.917a2.92 2.92 0 0 1 2.917 2.916v2.334a.58.58 0 0 0 .17.412l.996.996v.342ZM7 12.833a1.74 1.74 0 0 0 1.644-1.166H5.356A1.738 1.738 0 0 0 7 12.833Z" fill="#3670C7"/></svg>
